svgs/sharp-regular/square-5.svg

<svg xmlns="http://www.w3.org/2000/svg" viewBox="0 0 448 512"><!--! Font Awesome Pro 6.6.0 by @fontawesome - https://fontawesome.com License - https://fontawesome.com/license (Commercial License) Copyright 2024 Fonticons, Inc. --><path d="M48 80l0 352 352 0 0-352L48 80zM0 32l48 0 352 0 48 0 0 48 0 352 0 48-48 0L48 480 0 480l0-48L0 80 0 32zm176 96l104 0 24 0 0 48-24 0-82.1 0L194 218.9l56 6.7c39.9 4.8 70 38.7 70 78.9c0 43.9-35.6 79.5-79.5 79.5l-33 0c-29.8 0-57.1-16.4-71.2-42.6l-5.4-10 42.3-22.7 5.4 10c5.7 10.7 16.9 17.3 29 17.3l33 0c17.4 0 31.5-14.1 31.5-31.5c0-15.9-11.9-29.3-27.7-31.2l-79.1-9.5L142 261.1l2.1-23.2 8-88 2-21.8 21.9 0z"/></svg>

<svg xmlns="http://www.w3.org/2000/svg" viewBox="0 0 448 512"><!--! Font Awesome Pro 6.4.2 by @fontawesome - https://fontawesome.com License - https://fontawesome.com/license (Commercial License) Copyright 2023 Fonticons, Inc. --><path d="M48 80V432H400V80H48zM0 32H48 400h48V80 432v48H400 48 0V432 80 32zm176 96H280h24v48H280 197.9L194 218.9l56 6.7c39.9 4.8 70 38.7 70 78.9c0 43.9-35.6 79.5-79.5 79.5h-33c-29.8 0-57.1-16.4-71.2-42.6l-5.4-10 42.3-22.7 5.4 10c5.7 10.7 16.9 17.3 29 17.3h33c17.4 0 31.5-14.1 31.5-31.5c0-15.9-11.9-29.3-27.7-31.2l-79.1-9.5L142 261.1l2.1-23.2 8-88 2-21.8H176z"/></svg>
